icons/svgs/leaf-outline.svg

<svg width="24" height="24" viewBox="0 0 24 24" fill="none" xmlns="http://www.w3.org/2000/svg">
<path d="M7.82031 11.1797C8.64062 10.9062 9.5 10.75 10.4375 10.75H13.5625C14.0703 10.75 14.5 11.1797 14.5 11.6875C14.5 12.2344 14.0703 12.625 13.5625 12.625H10.4375C9.42188 12.625 8.48438 12.8594 7.66406 13.25C7.9375 15.7109 10.0469 17.625 12.5859 17.625H12.625C16.4531 17.625 20.125 13.7188 20.125 8.13281C20.125 7.625 20.0859 7.15625 20.0078 6.6875C19.0703 7.27344 17.8984 7.625 16.6875 7.625H12.625C10.3594 7.625 8.44531 9.14844 7.82031 11.1797ZM5.75 12.1953C5.98438 8.60156 8.95312 5.75 12.625 5.75H16.6875C17.7812 5.75 18.7969 5.35938 19.5781 4.65625C19.6172 4.61719 19.6562 4.61719 19.6562 4.57812C19.9297 4.34375 20.1641 4.07031 20.3594 3.75781C20.3984 3.67969 20.4766 3.5625 20.5156 3.44531C20.6719 3.21094 21.0625 3.21094 21.1406 3.44531C21.2188 3.60156 21.2578 3.71875 21.2969 3.875C21.4141 4.22656 21.5312 4.57812 21.6094 4.92969C21.6094 5.00781 21.6484 5.08594 21.6484 5.16406C21.8828 6.10156 22 7.11719 22 8.13281C22 14.4219 17.8203 19.5 12.6641 19.5H12.625C9.42188 19.5 6.72656 17.3516 5.94531 14.3828C4.65625 15.5938 3.875 17.3125 3.875 19.1875V19.8125C3.875 20.3594 3.44531 20.75 2.9375 20.75C2.39062 20.75 2 20.3594 2 19.8125V19.1875C2 16.2578 3.48438 13.6797 5.75 12.1953Z" fill="black"/>
</svg>

<svg xmlns="http://www.w3.org/2000/svg" width="24" height="24" fill="currentColor" class="icon-leaf-outline" viewBox="0 0 24 24">
  <mask id="a" width="20" height="18" x="2" y="3" maskUnits="userSpaceOnUse" style="mask-type:alpha">
    <path d="M7.82 11.18c.82-.274 1.68-.43 2.617-.43h3.126a.95.95 0 0 1 .937.938c0 .546-.43.937-.937.937h-3.126a6.4 6.4 0 0 0-2.773.625c.274 2.46 2.383 4.375 4.922 4.375h.039c3.828 0 7.5-3.906 7.5-9.492 0-.508-.04-.977-.117-1.445a6.33 6.33 0 0 1-3.32.937h-4.063c-2.266 0-4.18 1.523-4.805 3.555m-2.07 1.015a6.885 6.885 0 0 1 6.875-6.445h4.063c1.093 0 2.109-.39 2.89-1.094.04-.039.078-.039.078-.078q.41-.351.703-.82c.04-.078.118-.195.157-.313.156-.234.547-.234.625 0 .078.157.117.274.156.43.117.352.234.703.312 1.055 0 .078.04.156.04.234.234.938.351 1.953.351 2.969 0 6.289-4.18 11.367-9.336 11.367h-.039a6.88 6.88 0 0 1-6.68-5.117 6.58 6.58 0 0 0-2.07 4.805v.625c0 .546-.43.937-.937.937-.547 0-.938-.39-.938-.937v-.625a8.33 8.33 0 0 1 3.75-6.993"/>
  </mask>
  <g mask="url(#a)">
    <path d="M0 0h24v24H0z"/>
  </g>
</svg>
